assets/i18n/b-it-dk.svg

<?xml version="1.0" encoding="UTF-8"?>
<svg width="217px" height="24px" viewBox="0 0 217 24" version="1.1" xmlns="http://www.w3.org/2000/svg" xmlns:xlink="http://www.w3.org/1999/xlink">
    <!-- Generator: Sketch 51.3 (57544) - http://www.bohemiancoding.com/sketch -->
    <title>SwG-IT Copy-Black</title>
    <desc>Created with Sketch.</desc>
    <defs></defs>
    <g id="SwG-IT-Copy" stroke="none" stroke-width="1" fill="none" fill-rule="evenodd">
        <path d="M0.276,19 L6.486,2.532 L8.878,2.532 L15.088,19 L12.742,19 L11.155,14.538 L4.232,14.538 L2.622,19 L0.276,19 Z M4.945,12.56 L10.419,12.56 L7.728,5.131 L7.636,5.131 L4.945,12.56 Z M22.75275,19.368 C21.894079,19.368 21.1235867,19.1840018 20.44125,18.816 C19.7589133,18.4479982 19.249085,17.9880028 18.91175,17.436 L18.81975,17.436 L18.81975,19 L16.79575,19 L16.79575,2.532 L18.91175,2.532 L18.91175,7.73 L18.81975,9.294 L18.91175,9.294 C19.249085,8.74199724 19.7589133,8.28200184 20.44125,7.914 C21.1235867,7.54599816 21.894079,7.362 22.75275,7.362 C24.2094239,7.362 25.4667447,7.93699425 26.52475,9.087 C27.5827553,10.2370057 28.11175,11.6629915 28.11175,13.365 C28.11175,15.0670085 27.5827553,16.4929942 26.52475,17.643 C25.4667447,18.7930057 24.2094239,19.368 22.75275,19.368 Z M22.40775,17.436 C23.3890882,17.436 24.2324131,17.0641704 24.93775,16.3205 C25.6430869,15.5768296 25.99575,14.5916728 25.99575,13.365 C25.99575,12.1383272 25.6430869,11.1531704 24.93775,10.4095 C24.2324131,9.66582962 23.3890882,9.294 22.40775,9.294 C21.4110784,9.294 20.5639202,9.66199632 19.86625,10.398 C19.1685798,11.1340037 18.81975,12.1229938 18.81975,13.365 C18.81975,14.6070062 19.1685798,15.5959963 19.86625,16.332 C20.5639202,17.0680037 21.4110784,17.436 22.40775,17.436 Z M36.0295,19.368 C35.170829,19.368 34.4003367,19.1840018 33.718,18.816 C33.0356633,18.4479982 32.525835,17.9880028 32.1885,17.436 L32.0965,17.436 L32.0965,19 L30.0725,19 L30.0725,2.532 L32.1885,2.532 L32.1885,7.73 L32.0965,9.294 L32.1885,9.294 C32.525835,8.74199724 33.0356633,8.28200184 33.718,7.914 C34.4003367,7.54599816 35.170829,7.362 36.0295,7.362 C37.486174,7.362 38.7434947,7.93699425 39.8015,9.087 C40.8595053,10.2370057 41.3885,11.6629915 41.3885,13.365 C41.3885,15.0670085 40.8595053,16.4929942 39.8015,17.643 C38.7434947,18.7930057 37.486174,19.368 36.0295,19.368 Z M35.6845,17.436 C36.6658382,17.436 37.5091631,17.0641704 38.2145,16.3205 C38.9198369,15.5768296 39.2725,14.5916728 39.2725,13.365 C39.2725,12.1383272 38.9198369,11.1531704 38.2145,10.4095 C37.5091631,9.66582962 36.6658382,9.294 35.6845,9.294 C34.6878283,9.294 33.8406702,9.66199632 33.143,10.398 C32.4453298,11.1340037 32.0965,12.1229938 32.0965,13.365 C32.0965,14.6070062 32.4453298,15.5959963 33.143,16.332 C33.8406702,17.0680037 34.6878283,17.436 35.6845,17.436 Z M44.45325,9.087 C45.5419221,7.93699425 46.9295749,7.362 48.61625,7.362 C50.3029251,7.362 51.6905779,7.93316096 52.77925,9.0755 C53.8679221,10.217839 54.41225,11.6476581 54.41225,13.365 C54.41225,15.0823419 53.8679221,16.512161 52.77925,17.6545 C51.6905779,18.796839 50.3029251,19.368 48.61625,19.368 C46.9295749,19.368 45.5419221,18.796839 44.45325,17.6545 C43.3645779,16.512161 42.82025,15.0823419 42.82025,13.365 C42.82025,11.6476581 43.3645779,10.2216723 44.45325,9.087 Z M46.01725,16.332 C46.7532537,17.0680037 47.6195784,17.436 48.61625,17.436 C49.6129217,17.436 50.475413,17.0641704 51.20375,16.3205 C51.932087,15.5768296 52.29625,14.5916728 52.29625,13.365 C52.29625,12.1383272 51.932087,11.1531704 51.20375,10.4095 C50.475413,9.66582962 49.6129217,9.294 48.61625,9.294 C47.6195784,9.294 46.757087,9.66582962 46.02875,10.4095 C45.300413,11.1531704 44.93625,12.1383272 44.93625,13.365 C44.93625,14.5916728 45.2965797,15.5806629 46.01725,16.332 Z M58.282,7.73 L58.282,9.294 L58.374,9.294 C58.6806682,8.75733065 59.1636634,8.30116854 59.823,7.9255 C60.4823366,7.54983145 61.1876629,7.362 61.939,7.362 C63.3343403,7.362 64.3999963,7.79132904 65.136,8.65 C65.8720037,9.50867096 66.24,10.6586595 66.24,12.1 L66.24,19 L64.124,19 L64.124,12.422 C64.124,10.3366562 63.1963426,9.294 61.341,9.294 C60.4669956,9.294 59.7540028,9.64282985 59.202,10.3405 C58.6499972,11.0381702 58.374,11.8469954 58.374,12.767 L58.374,19 L56.258,19 L56.258,7.73 L58.282,7.73 Z M72.31775,19.368 C71.121744,19.368 70.121254,19.0230035 69.31625,18.333 C68.511246,17.6429965 68.10875,16.7306723 68.10875,15.596 C68.10875,14.3693272 68.5840786,13.4071702 69.53475,12.7095 C70.4854214,12.0118298 71.6584097,11.663 73.05375,11.663 C74.2957562,11.663 75.3154127,11.8929977 76.11275,12.353 L76.11275,12.031 C76.11275,11.2029959 75.8290862,10.5398358 75.26175,10.0415 C74.6944138,9.54316418 73.9967541,9.294 73.16875,9.294 C72.5554136,9.294 71.9995858,9.43966521 71.50125,9.731 C71.0029142,10.0223348 70.6617509,10.4209975 70.47775,10.927 L68.54575,10.099 C68.806418,9.42432996 69.3200795,8.79950287 70.08675,8.2245 C70.8534205,7.64949712 71.8654104,7.362 73.12275,7.362 C74.5640905,7.362 75.7600786,7.78366245 76.71075,8.627 C77.6614214,9.47033755 78.13675,10.658659 78.13675,12.192 L78.13675,19 L76.11275,19 L76.11275,17.436 L76.02075,17.436 C75.1774124,18.7240064 73.9430915,19.368 72.31775,19.368 Z M72.66275,17.436 C73.5367544,17.436 74.3302464,17.1101699 75.04325,16.4585 C75.7562536,15.8068301 76.11275,15.0363378 76.11275,14.147 C75.514747,13.6563309 74.617756,13.411 73.42175,13.411 C72.3944115,13.411 71.6200859,13.6333311 71.09875,14.078 C70.5774141,14.5226689 70.31675,15.043997 70.31675,15.642 C70.31675,16.1940028 70.5544143,16.6309984 71.02975,16.953 C71.5050857,17.2750016 72.0494136,17.436 72.66275,17.436 Z M85.3185,19.184 C84.1378274,19.184 83.2370031,18.8696698 82.616,18.241 C81.9949969,17.6123302 81.6845,16.7230057 81.6845,15.573 L81.6845,9.662 L79.7065,9.662 L79.7065,7.73 L81.6845,7.73 L81.6845,4.28 L83.8005,4.28 L83.8005,7.73 L86.5605,7.73 L86.5605,9.662 L83.8005,9.662 L83.8005,15.412 C83.8005,16.6386728 84.3064949,17.252 85.3185,17.252 C85.7018353,17.252 86.023832,17.1906673 86.2845,17.068 L87.0205,18.885 C86.5604977,19.0843343 85.99317,19.184 85.3185,19.184 Z M91.14325,4.901 C90.8519152,5.19233479 90.4992521,5.338 90.08525,5.338 C89.6712479,5.338 89.3185848,5.19233479 89.02725,4.901 C88.7359152,4.60966521 88.59025,4.25700207 88.59025,3.843 C88.59025,3.42899793 88.7359152,3.07633479 89.02725,2.785 C89.3185848,2.49366521 89.6712479,2.348 90.08525,2.348 C90.4992521,2.348 90.8519152,2.49366521 91.14325,2.785 C91.4345848,3.07633479 91.58025,3.42899793 91.58025,3.843 C91.58025,4.25700207 91.4345848,4.60966521 91.14325,4.901 Z M91.14325,19 L89.02725,19 L89.02725,7.73 L91.14325,7.73 L91.14325,19 Z M104.40275,19.368 C102.716075,19.368 101.328422,18.796839 100.23975,17.6545 C99.1510779,16.512161 98.60675,15.0823419 98.60675,13.365 C98.60675,11.6476581 99.1510779,10.217839 100.23975,9.0755 C101.328422,7.93316096 102.716075,7.362 104.40275,7.362 C105.66009,7.362 106.702746,7.6686636 107.53075,8.282 C108.358754,8.8953364 108.964415,9.66966199 109.34775,10.605 L107.41575,11.41 C106.83308,9.99932628 105.782758,9.294 104.26475,9.294 C103.329412,9.294 102.505254,9.6773295 101.79225,10.444 C101.079246,11.2106705 100.72275,12.1843274 100.72275,13.365 C100.72275,14.5456726 101.079246,15.5193295 101.79225,16.286 C102.505254,17.0526705 103.329412,17.436 104.26475,17.436 C105.844091,17.436 106.932747,16.7306737 107.53075,15.32 L109.41675,16.125 C109.033415,17.0450046 108.416254,17.8154969 107.56525,18.4365 C106.714246,19.0575031 105.66009,19.368 104.40275,19.368 Z M112.2745,9.087 C113.363172,7.93699425 114.750825,7.362 116.4375,7.362 C118.124175,7.362 119.511828,7.93316096 120.6005,9.0755 C121.689172,10.217839 122.2335,11.6476581 122.2335,13.365 C122.2335,15.0823419 121.689172,16.512161 120.6005,17.6545 C119.511828,18.796839 118.124175,19.368 116.4375,19.368 C114.750825,19.368 113.363172,18.796839 112.2745,17.6545 C111.185828,16.512161 110.6415,15.0823419 110.6415,13.365 C110.6415,11.6476581 111.185828,10.2216723 112.2745,9.087 Z M113.8385,16.332 C114.574504,17.0680037 115.440828,17.436 116.4375,17.436 C117.434172,17.436 118.296663,17.0641704 119.025,16.3205 C119.753337,15.5768296 120.1175,14.5916728 120.1175,13.365 C120.1175,12.1383272 119.753337,11.1531704 119.025,10.4095 C118.296663,9.66582962 117.434172,9.294 116.4375,9.294 C115.440828,9.294 114.578337,9.66582962 113.85,10.4095 C113.121663,11.1531704 112.7575,12.1383272 112.7575,13.365 C112.7575,14.5916728 113.11783,15.5806629 113.8385,16.332 Z M126.10325,7.73 L126.10325,9.294 L126.19525,9.294 C126.501918,8.75733065 126.984913,8.30116854 127.64425,7.9255 C128.303587,7.54983145 129.008913,7.362 129.76025,7.362 C131.15559,7.362 132.221246,7.79132904 132.95725,8.65 C133.693254,9.50867096 134.06125,10.6586595 134.06125,12.1 L134.06125,19 L131.94525,19 L131.94525,12.422 C131.94525,10.3366562 131.017593,9.294 129.16225,9.294 C128.288246,9.294 127.575253,9.64282985 127.02325,10.3405 C126.471247,11.0381702 126.19525,11.8469954 126.19525,12.767 L126.19525,19 L124.07925,19 L124.07925,7.73 L126.10325,7.73 Z" id="Abbonati-con" fill="#FFFFFF"></path>
        <g id="Group" transform="translate(142.000000, 0.000000)" fill="#FFFFFF" fill-rule="nonzero">
            <path d="M9.36714443,19 C4.27673649,19 0,14.7346939 0,9.5 C0,4.26530612 4.27673649,0 9.36714443,0 C12.185226,0 14.1896362,1.13265306 15.6979052,2.62244898 L13.92172,4.44897959 C12.8401323,3.40816327 11.3715546,2.59183673 9.36714443,2.59183673 C5.646086,2.59183673 2.73869901,5.67346939 2.73869901,9.5 C2.73869901,13.3265306 5.646086,16.4081633 9.36714443,16.4081633 C11.7783903,16.4081633 13.1477398,15.4081633 14.030871,14.5102041 C14.755237,13.7653061 15.2216097,12.7040816 15.4002205,11.244898 L9.36714443,11.244898 L9.36714443,8.64285714 L17.8610805,8.64285714 C17.9503859,9.10204082 18,9.66326531 18,10.2653061 C18,12.2142857 17.4840132,14.622449 15.8169791,16.3367347 C14.1896362,18.0714286 12.1256891,19 9.36714443,19 Z" id="Shape"></path>
            <path d="M32,13 C32,16.4557596 29.3096447,19 26,19 C22.6903553,19 20,16.4557596 20,13 C20,9.52420701 22.6903553,7 26,7 C29.3096447,7 32,9.52420701 32,13 Z M29.3705584,13 C29.3705584,10.836394 27.8071066,9.3639399 26,9.3639399 C24.1928934,9.3639399 22.6294416,10.8464107 22.6294416,13 C22.6294416,15.1335559 24.1928934,16.6360601 26,16.6360601 C27.8071066,16.6360601 29.3705584,15.1435726 29.3705584,13 Z" id="Shape"></path>
            <path d="M45,13 C45,16.4557596 42.3096447,19 39,19 C35.7005076,19 33,16.4557596 33,13 C33,9.52420701 35.6903553,7 39,7 C42.3096447,7 45,9.52420701 45,13 Z M42.3807107,13 C42.3807107,10.836394 40.8172589,9.3639399 39.0101523,9.3639399 C37.2030457,9.3639399 35.6395939,10.8464107 35.6395939,13 C35.6395939,15.1335559 37.2030457,16.6360601 39.0101523,16.6360601 C40.8172589,16.6460768 42.3807107,15.1435726 42.3807107,13 Z" id="Shape"></path>
            <path d="M57,7.3621186 L57,17.8929188 C57,22.228555 54.5013055,24 51.5430809,24 C48.7571802,24 47.0913838,22.0915371 46.45953,20.5354059 L48.6518712,19.6056419 C49.0443864,20.5647668 50.0017406,21.6902706 51.5430809,21.6902706 C53.4386423,21.6902706 54.6066144,20.4864709 54.6066144,18.2452504 L54.6066144,17.4035694 L54.5204526,17.4035694 C53.9556136,18.1180196 52.8642298,18.7345999 51.4952132,18.7345999 C48.6231506,18.7345999 46,16.1801957 46,12.8917674 C46,9.58376511 48.6327241,7 51.4952132,7 C52.8642298,7 53.9556136,7.6263673 54.5204526,8.31145653 L54.6066144,8.31145653 L54.6066144,7.3621186 L57,7.3621186 Z M54.7789382,12.9015544 C54.7789382,10.8364997 53.4290688,9.31951641 51.7154047,9.31951641 C49.97302,9.31951641 48.5178416,10.8267127 48.5178416,12.9015544 C48.5178416,14.9470351 49.97302,16.4346575 51.7154047,16.4346575 C53.4290688,16.4346575 54.7789382,14.9470351 54.7789382,12.9015544 Z" id="Shape"></path>
            <polygon id="Shape" points="63 1 63 19 60 19 60 1"></polygon>
            <path d="M72.8441203,14.9732888 L74.8896992,16.3355593 C74.2278943,17.3171953 72.633546,19 69.8760255,19 C66.4567001,19 64,16.3656093 64,13 C64,9.43405676 66.4867821,7 69.5852325,7 C72.7037375,7 74.2278943,9.47412354 74.7292616,10.8163606 L75,11.4974958 L66.9680948,14.8230384 C67.579763,16.0250417 68.5423883,16.6460768 69.8860529,16.6460768 C71.2297174,16.6460768 72.1622607,15.9749583 72.8441203,14.9732888 Z M66.5369189,12.8096828 L71.911577,10.5859766 C71.6107566,9.83472454 70.72835,9.31385643 69.6754786,9.31385643 C68.331814,9.31385643 66.4667274,10.4958264 66.5369189,12.8096828 Z" id="Shape"></path>
        </g>
    </g>
</svg>

<svg width="217" height="24" viewBox="0 0 217 24" xmlns="http://www.w3.org/2000/svg"><title>SwG-IT-Black</title><desc>Created with Sketch.</desc><g fill="none"><path d="M.276 19l6.21-16.468h2.392l6.21 16.468h-2.346l-1.587-4.462h-6.923l-1.61 4.462h-2.346zm4.669-6.44h5.474l-2.691-7.429h-.092l-2.691 7.429zm17.808 6.808c-.859 0-1.629-.184-2.311-.552-.682-.368-1.192-.828-1.529-1.38h-.092v1.564h-2.024v-16.468h2.116v5.198l-.092 1.564h.092c.337-.552.847-1.012 1.529-1.38.682-.368 1.453-.552 2.311-.552 1.457 0 2.714.575 3.772 1.725 1.058 1.15 1.587 2.576 1.587 4.278 0 1.702-.529 3.128-1.587 4.278-1.058 1.15-2.315 1.725-3.772 1.725zm-.345-1.932c.981 0 1.825-.372 2.53-1.116.705-.744 1.058-1.729 1.058-2.955 0-1.227-.353-2.212-1.058-2.956-.705-.744-1.549-1.115-2.53-1.115-.997 0-1.844.368-2.541 1.104-.698.736-1.047 1.725-1.047 2.967s.349 2.231 1.047 2.967c.698.736 1.545 1.104 2.541 1.104zm13.622 1.932c-.859 0-1.629-.184-2.311-.552-.682-.368-1.192-.828-1.53-1.38h-.092v1.564h-2.024v-16.468h2.116v5.198l-.092 1.564h.092c.337-.552.847-1.012 1.53-1.38.682-.368 1.453-.552 2.311-.552 1.457 0 2.714.575 3.772 1.725 1.058 1.15 1.587 2.576 1.587 4.278 0 1.702-.529 3.128-1.587 4.278-1.058 1.15-2.315 1.725-3.772 1.725zm-.345-1.932c.981 0 1.825-.372 2.53-1.116.705-.744 1.058-1.729 1.058-2.955 0-1.227-.353-2.212-1.058-2.956-.705-.744-1.549-1.115-2.53-1.115-.997 0-1.844.368-2.541 1.104-.698.736-1.047 1.725-1.047 2.967s.349 2.231 1.047 2.967c.698.736 1.545 1.104 2.541 1.104zm8.769-8.349c1.089-1.15 2.476-1.725 4.163-1.725 1.687 0 3.074.571 4.163 1.713 1.089 1.142 1.633 2.572 1.633 4.29 0 1.717-.544 3.147-1.633 4.289s-2.476 1.713-4.163 1.713c-1.687 0-3.074-.571-4.163-1.713-1.089-1.142-1.633-2.572-1.633-4.289 0-1.717.544-3.143 1.633-4.278zm1.564 7.245c.736.736 1.602 1.104 2.599 1.104.997 0 1.859-.372 2.587-1.116.728-.744 1.093-1.729 1.093-2.955 0-1.227-.364-2.212-1.093-2.956-.728-.744-1.591-1.115-2.587-1.115-.997 0-1.859.372-2.587 1.115-.728.744-1.093 1.729-1.093 2.956 0 1.227.36 2.216 1.081 2.967zm12.265-8.602v1.564h.092c.307-.537.79-.993 1.449-1.369s1.365-.564 2.116-.564c1.395 0 2.461.429 3.197 1.288.736.859 1.104 2.009 1.104 3.45v6.9h-2.116v-6.578c0-2.085-.928-3.128-2.783-3.128-.874 0-1.587.349-2.139 1.046-.552.698-.828 1.506-.828 2.426v6.233h-2.116v-11.27h2.024zm14.036 11.638c-1.196 0-2.196-.345-3.002-1.035-.805-.69-1.207-1.602-1.207-2.737 0-1.227.475-2.189 1.426-2.886.951-.698 2.124-1.046 3.519-1.046 1.242 0 2.262.23 3.059.69v-.322c0-.828-.284-1.491-.851-1.99-.567-.498-1.265-.747-2.093-.747-.613 0-1.169.146-1.668.437-.498.291-.839.69-1.023 1.196l-1.932-.828c.261-.675.774-1.299 1.541-1.874.767-.575 1.779-.863 3.036-.863 1.441 0 2.637.422 3.588 1.265.951.843 1.426 2.032 1.426 3.565v6.808h-2.024v-1.564h-.092c-.843 1.288-2.078 1.932-3.703 1.932zm.345-1.932c.874 0 1.667-.326 2.38-.977.713-.652 1.07-1.422 1.07-2.312-.598-.491-1.495-.736-2.691-.736-1.027 0-1.802.222-2.323.667-.521.445-.782.966-.782 1.564 0 .552.238.989.713 1.311.475.322 1.02.483 1.633.483zm12.656 1.748c-1.181 0-2.081-.314-2.703-.943-.621-.629-.931-1.518-.931-2.668v-5.911h-1.978v-1.932h1.978v-3.45h2.116v3.45h2.76v1.932h-2.76v5.75c0 1.227.506 1.84 1.518 1.84.383 0 .705-.061.966-.184l.736 1.817c-.46.199-1.027.299-1.702.299zm5.825-14.283c-.291.291-.644.437-1.058.437-.414 0-.767-.146-1.058-.437-.291-.291-.437-.644-.437-1.058 0-.414.146-.767.437-1.058.291-.291.644-.437 1.058-.437.414 0 .767.146 1.058.437.291.291.437.644.437 1.058 0 .414-.146.767-.437 1.058zm0 14.099h-2.116v-11.27h2.116v11.27zm13.26.368c-1.687 0-3.074-.571-4.163-1.713-1.089-1.142-1.633-2.572-1.633-4.289 0-1.717.544-3.147 1.633-4.29 1.089-1.142 2.476-1.713 4.163-1.713 1.257 0 2.3.307 3.128.92.828.613 1.434 1.388 1.817 2.323l-1.932.805c-.583-1.411-1.633-2.116-3.151-2.116-.935 0-1.759.383-2.473 1.15-.713.767-1.069 1.74-1.069 2.921 0 1.181.356 2.154 1.069 2.921.713.767 1.537 1.15 2.473 1.15 1.579 0 2.668-.705 3.266-2.116l1.886.805c-.383.92-1 1.69-1.851 2.311s-1.905.931-3.163.931zm7.872-10.281c1.089-1.15 2.476-1.725 4.163-1.725 1.687 0 3.074.571 4.163 1.713 1.089 1.142 1.633 2.572 1.633 4.29 0 1.717-.544 3.147-1.633 4.289s-2.476 1.713-4.163 1.713c-1.687 0-3.074-.571-4.163-1.713-1.089-1.142-1.633-2.572-1.633-4.289 0-1.717.544-3.143 1.633-4.278zm1.564 7.245c.736.736 1.602 1.104 2.599 1.104.997 0 1.859-.372 2.588-1.116.728-.744 1.093-1.729 1.093-2.955 0-1.227-.364-2.212-1.093-2.956-.728-.744-1.591-1.115-2.588-1.115-.997 0-1.859.372-2.588 1.115-.728.744-1.093 1.729-1.093 2.956 0 1.227.36 2.216 1.081 2.967zm12.265-8.602v1.564h.092c.307-.537.79-.993 1.449-1.369s1.365-.564 2.116-.564c1.395 0 2.461.429 3.197 1.288.736.859 1.104 2.009 1.104 3.45v6.9h-2.116v-6.578c0-2.085-.928-3.128-2.783-3.128-.874 0-1.587.349-2.139 1.046-.552.698-.828 1.506-.828 2.426v6.233h-2.116v-11.27h2.024z" fill="#fff"/><g fill-rule="nonzero"><path d="M151.367 19c-5.09 0-9.367-4.265-9.367-9.5s4.277-9.5 9.367-9.5c2.818 0 4.822 1.133 6.331 2.622l-1.776 1.827c-1.082-1.041-2.55-1.857-4.555-1.857-3.721 0-6.628 3.082-6.628 6.908 0 3.827 2.907 6.908 6.628 6.908 2.411 0 3.781-1 4.664-1.898.724-.745 1.191-1.806 1.369-3.265h-6.033v-2.602h8.494c.089.459.139 1.02.139 1.622 0 1.949-.516 4.357-2.183 6.071-1.627 1.735-3.691 2.663-6.45 2.663z" id="Shape" fill="#4285F4"/><path d="M174 13c0 3.456-2.69 6-6 6s-6-2.544-6-6c0-3.476 2.69-6 6-6s6 2.524 6 6zm-2.629 0c0-2.164-1.563-3.636-3.371-3.636-1.807 0-3.371 1.482-3.371 3.636 0 2.134 1.563 3.636 3.371 3.636 1.807 0 3.371-1.492 3.371-3.636z" id="Shape" fill="#E94235"/><path d="M187 13c0 3.456-2.69 6-6 6-3.299 0-6-2.544-6-6 0-3.476 2.69-6 6-6s6 2.524 6 6zm-2.619 0c0-2.164-1.563-3.636-3.371-3.636-1.807 0-3.371 1.482-3.371 3.636 0 2.134 1.563 3.636 3.371 3.636 1.807.01 3.371-1.492 3.371-3.636z" id="Shape" fill="#FABB05"/><path d="M199 7.362v10.531c0 4.336-2.499 6.107-5.457 6.107-2.786 0-4.452-1.908-5.084-3.465l2.192-.93c.393.959 1.35 2.085 2.891 2.085 1.896 0 3.064-1.204 3.064-3.445v-.842h-.086c-.565.714-1.656 1.331-3.025 1.331-2.872 0-5.495-2.554-5.495-5.843 0-3.308 2.633-5.892 5.495-5.892 1.369 0 2.46.626 3.025 1.311h.086v-.949h2.393zm-2.221 5.539c0-2.065-1.35-3.582-3.064-3.582-1.742 0-3.198 1.507-3.198 3.582 0 2.045 1.455 3.533 3.198 3.533 1.714 0 3.064-1.488 3.064-3.533z" id="Shape" fill="#4285F4"/><path id="Shape" fill="#34A853" d="M205 1v18h-3v-18z"/><path d="M214.844 14.973l2.046 1.362c-.662.982-2.256 2.664-5.014 2.664-3.419 0-5.876-2.634-5.876-6 0-3.566 2.487-6 5.585-6 3.119 0 4.643 2.474 5.144 3.816l.271.681-8.032 3.326c.612 1.202 1.574 1.823 2.918 1.823s2.276-.671 2.958-1.673zm-6.307-2.164l5.375-2.224c-.301-.751-1.183-1.272-2.236-1.272-1.344 0-3.209 1.182-3.139 3.496z" fill="#E94235"/></g></g></svg>
